static/img/kroki/80e7a608de3a9db860beb2dd9636809c.svg

<?xml version="1.0" encoding="us-ascii" standalone="no"?><svg xmlns="http://www.w3.org/2000/svg" xmlns:xlink="http://www.w3.org/1999/xlink" contentStyleType="text/css" height="864px" preserveAspectRatio="none" style="width:357px;height:864px;" version="1.1" viewBox="0 0 357 864" width="357px" zoomAndPan="magnify"><defs/><g><!--class azure_resource--><g id="elem_azure_resource"><rect codeLine="22" fill="#3D176E" height="39.7891" id="azure_resource" rx="2.5" ry="2.5" style="stroke:#000D19;stroke-width:0.5;" width="168" x="94.5" y="438.76"/><ellipse cx="109.5" cy="458.6545" fill="#ADD1B2" rx="11" ry="11" style="stroke:#181818;stroke-width:1.0;"/><path d="M112.4688,464.2952 Q111.8906,464.592 111.25,464.7327 Q110.6094,464.8889 109.9063,464.8889 Q107.4063,464.8889 106.0781,463.2483 Q104.7656,461.592 104.7656,458.467 Q104.7656,455.342 106.0781,453.6858 Q107.4063,452.0295 109.9063,452.0295 Q110.6094,452.0295 111.25,452.1858 Q111.9063,452.342 112.4688,452.6389 L112.4688,455.3577 Q111.8438,454.7795 111.25,454.5139 Q110.6563,454.2327 110.0313,454.2327 Q108.6875,454.2327 108,455.3108 Q107.3125,456.3733 107.3125,458.467 Q107.3125,460.5608 108,461.6389 Q108.6875,462.7014 110.0313,462.7014 Q110.6563,462.7014 111.25,462.4358 Q111.8438,462.1545 112.4688,461.5764 L112.4688,464.2952 Z " fill="#000000"/><text fill="#D9B8FF" font-family="Helvetica" font-size="17" lengthAdjust="spacing" textLength="126" x="128.5" y="464.5398">azure_resource</text></g><!--class azure_virtual_wan--><g id="elem_azure_virtual_wan"><rect codeLine="24" fill="#3D176E" height="258.1641" id="azure_virtual_wan" rx="2.5" ry="2.5" style="stroke:#000D19;stroke-width:0.5;" width="343" x="7" y="599.55"/><ellipse cx="91.75" cy="619.4445" fill="#ADD1B2" rx="11" ry="11" style="stroke:#181818;stroke-width:1.0;"/><path d="M94.7188,625.0852 Q94.1406,625.382 93.5,625.5227 Q92.8594,625.6789 92.1563,625.6789 Q89.6563,625.6789 88.3281,624.0383 Q87.0156,622.382 87.0156,619.257 Q87.0156,616.132 88.3281,614.4758 Q89.6563,612.8195 92.1563,612.8195 Q92.8594,612.8195 93.5,612.9758 Q94.1563,613.132 94.7188,613.4289 L94.7188,616.1477 Q94.0938,615.5695 93.5,615.3039 Q92.9063,615.0227 92.2813,615.0227 Q90.9375,615.0227 90.25,616.1008 Q89.5625,617.1633 89.5625,619.257 Q89.5625,621.3508 90.25,622.4289 Q90.9375,623.4914 92.2813,623.4914 Q92.9063,623.4914 93.5,623.2258 Q94.0938,622.9445 94.7188,622.3664 L94.7188,625.0852 Z " fill="#000000"/><text fill="#D9B8FF" font-family="Helvetica" font-size="17" lengthAdjust="spacing" textLength="155" x="117.25" y="625.3298">azure_virtual_wan</text><line style="stroke:#000D19;stroke-width:0.5;" x1="8" x2="349" y1="639.3391" y2="639.3391"/><text fill="#D9B8FF" font-family="sans-serif" font-size="14" font-weight="bold" lengthAdjust="spacing" textLength="242" x="18" y="661.3342">allow_branch_to_branch_traffic</text><text fill="#D9B8FF" font-family="sans-serif" font-size="14" lengthAdjust="spacing" textLength="65" x="260" y="661.3342">: boolean</text><text fill="#D9B8FF" font-family="sans-serif" font-size="14" font-weight="bold" lengthAdjust="spacing" textLength="202" x="18" y="687.6311">allow_vnet_to_vnet_traffic</text><text fill="#D9B8FF" font-family="sans-serif" font-size="14" lengthAdjust="spacing" textLength="65" x="220" y="687.6311">: boolean</text><text fill="#D9B8FF" font-family="sans-serif" font-size="14" font-weight="bold" lengthAdjust="spacing" textLength="184" x="18" y="713.9279">disable_vpn_encryption</text><text fill="#D9B8FF" font-family="sans-serif" font-size="14" lengthAdjust="spacing" textLength="65" x="202" y="713.9279">: boolean</text><text fill="#D9B8FF" font-family="sans-serif" font-size="14" font-weight="bold" lengthAdjust="spacing" textLength="35" x="18" y="740.2248">etag</text><text fill="#D9B8FF" font-family="sans-serif" font-size="14" lengthAdjust="spacing" textLength="48" x="53" y="740.2248">: string</text><text fill="#D9B8FF" font-family="sans-serif" font-size="14" font-weight="bold" lengthAdjust="spacing" textLength="273" x="18" y="766.5217">office365_local_breakout_category</text><text fill="#D9B8FF" font-family="sans-serif" font-size="14" lengthAdjust="spacing" textLength="48" x="291" y="766.5217">: string</text><text fill="#D9B8FF" font-family="sans-serif" font-size="14" font-weight="bold" lengthAdjust="spacing" textLength="144" x="18" y="792.8186">provisioning_state</text><text fill="#D9B8FF" font-family="sans-serif" font-size="14" lengthAdjust="spacing" textLength="48" x="162" y="792.8186">: string</text><text fill="#D9B8FF" font-family="sans-serif" font-size="14" font-weight="bold" lengthAdjust="spacing" textLength="95" x="18" y="819.1154">virtual_hubs</text><text fill="#D9B8FF" font-family="sans-serif" font-size="14" lengthAdjust="spacing" textLength="58" x="113" y="819.1154">: string[]</text><text fill="#D9B8FF" font-family="sans-serif" font-size="14" font-weight="bold" lengthAdjust="spacing" textLength="74" x="18" y="845.4123">vpn_sites</text><text fill="#D9B8FF" font-family="sans-serif" font-size="14" lengthAdjust="spacing" textLength="58" x="92" y="845.4123">: string[]</text></g><!--class resource--><g id="elem_resource"><rect codeLine="34" fill="#3D176E" height="310.7578" id="resource" rx="2.5" ry="2.5" style="stroke:#000D19;stroke-width:0.5;" width="227" x="65" y="7"/><ellipse cx="133.75" cy="26.8945" fill="#ADD1B2" rx="11" ry="11" style="stroke:#181818;stroke-width:1.0;"/><path d="M136.7188,32.5352 Q136.1406,32.832 135.5,32.9727 Q134.8594,33.1289 134.1563,33.1289 Q131.6563,33.1289 130.3281,31.4883 Q129.0156,29.832 129.0156,26.707 Q129.0156,23.582 130.3281,21.9258 Q131.6563,20.2695 134.1563,20.2695 Q134.8594,20.2695 135.5,20.4258 Q136.1563,20.582 136.7188,20.8789 L136.7188,23.5977 Q136.0938,23.0195 135.5,22.7539 Q134.9063,22.4727 134.2813,22.4727 Q132.9375,22.4727 132.25,23.5508 Q131.5625,24.6133 131.5625,26.707 Q131.5625,28.8008 132.25,29.8789 Q132.9375,30.9414 134.2813,30.9414 Q134.9063,30.9414 135.5,30.6758 Q136.0938,30.3945 136.7188,29.8164 L136.7188,32.5352 Z " fill="#000000"/><text fill="#D9B8FF" font-family="Helvetica" font-size="17" lengthAdjust="spacing" textLength="71" x="159.25" y="32.7798">resource</text><line style="stroke:#000D19;stroke-width:0.5;" x1="66" x2="291" y1="46.7891" y2="46.7891"/><text fill="#D9B8FF" font-family="sans-serif" font-size="14" font-weight="bold" lengthAdjust="spacing" textLength="29" x="76" y="68.7842">age</text><text fill="#D9B8FF" font-family="sans-serif" font-size="14" lengthAdjust="spacing" textLength="66" x="105" y="68.7842">: duration</text><text fill="#D9B8FF" font-family="sans-serif" font-size="14" font-weight="bold" lengthAdjust="spacing" textLength="43" x="76" y="95.0811">atime</text><text fill="#D9B8FF" font-family="sans-serif" font-size="14" lengthAdjust="spacing" textLength="70" x="119" y="95.0811">: datetime</text><text fill="#D9B8FF" font-family="sans-serif" font-size="14" font-weight="bold" lengthAdjust="spacing" textLength="43" x="76" y="121.3779">ctime</text><text fill="#D9B8FF" font-family="sans-serif" font-size="14" lengthAdjust="spacing" textLength="70" x="119" y="121.3779">: datetime</text><text fill="#D9B8FF" font-family="sans-serif" font-size="14" font-weight="bold" lengthAdjust="spacing" textLength="14" x="76" y="147.6748">id</text><text fill="#D9B8FF" font-family="sans-serif" font-size="14" lengthAdjust="spacing" textLength="48" x="90" y="147.6748">: string</text><text fill="#D9B8FF" font-family="sans-serif" font-size="14" font-weight="bold" lengthAdjust="spacing" textLength="33" x="76" y="173.9717">kind</text><text fill="#D9B8FF" font-family="sans-serif" font-size="14" lengthAdjust="spacing" textLength="48" x="109" y="173.9717">: string</text><text fill="#D9B8FF" font-family="sans-serif" font-size="14" font-weight="bold" lengthAdjust="spacing" textLength="90" x="76" y="200.2686">last_access</text><text fill="#D9B8FF" font-family="sans-serif" font-size="14" lengthAdjust="spacing" textLength="66" x="166" y="200.2686">: duration</text><text fill="#D9B8FF" font-family="sans-serif" font-size="14" font-weight="bold" lengthAdjust="spacing" textLength="90" x="76" y="226.5654">last_update</text><text fill="#D9B8FF" font-family="sans-serif" font-size="14" lengthAdjust="spacing" textLength="66" x="166" y="226.5654">: duration</text><text fill="#D9B8FF" font-family="sans-serif" font-size="14" font-weight="bold" lengthAdjust="spacing" textLength="48" x="76" y="252.8623">mtime</text><text fill="#D9B8FF" font-family="sans-serif" font-size="14" lengthAdjust="spacing" textLength="70" x="124" y="252.8623">: datetime</text><text fill="#D9B8FF" font-family="sans-serif" font-size="14" font-weight="bold" lengthAdjust="spacing" textLength="43" x="76" y="279.1592">name</text><text fill="#D9B8FF" font-family="sans-serif" font-size="14" lengthAdjust="spacing" textLength="48" x="119" y="279.1592">: string</text><text fill="#D9B8FF" font-family="sans-serif" font-size="14" font-weight="bold" lengthAdjust="spacing" textLength="34" x="76" y="305.4561">tags</text><text fill="#D9B8FF" font-family="sans-serif" font-size="14" lengthAdjust="spacing" textLength="171" x="110" y="305.4561">: dictionary[string, string]</text></g><!--reverse link resource to azure_resource--><g id="link_resource_azure_resource"><path codeLine="46" d="M178.5,335.84 C178.5,384.13 178.5,413.37 178.5,438.67 " fill="none" id="resource-backto-azure_resource" style="stroke:#FFAF37;stroke-width:2.0;"/><polygon fill="none" points="178.5,317.84,172.5,335.84,184.5,335.84,178.5,317.84" style="stroke:#FFAF37;stroke-width:2.0;"/></g><!--reverse link azure_resource to azure_virtual_wan--><g id="link_azure_resource_azure_virtual_wan"><path codeLine="47" d="M178.5,496.92 C178.5,522.61 178.5,552.27 178.5,599.05 " fill="none" id="azure_resource-backto-azure_virtual_wan" style="stroke:#FFAF37;stroke-width:2.0;"/><polygon fill="none" points="178.5,478.92,172.5,496.92,184.5,496.92,178.5,478.92" style="stroke:#FFAF37;stroke-width:2.0;"/></g><!--SRC=[XPD1Rzf048Nl_8gLSaD5WgA4KFMI8aNf9QgQtgBA6k-ExHNshZKx1Zbj_tjtCP2rJP8JvhsFcNdZeT0A1LOrjwB2AaLo4xVLfWQ2IjmHsVt6bfR4LPP1jbmDpNjh-4FW4IeK3rZkaBM48V6hq79hq3dnERA-WTpcP1kZkl9CO9otq714RKfmxewPTDemHiEeTNgRPKDoMFHggHQh6nnXbXJI4PdFvsgn7Y8VjdetzvbuqYye5l7I7YtZQCnHYmFrxfI1Y8OS1JtvRyxu0vJI9XVNaVQpcuaCKaz_Aa3PVQ0pA5tSnZ4IMcvht8nIuVfMPQkByFUtO1as9-2b8Km8dMr8elWp-TSpTfguWJBPW_7UT0fbQVT9wYz85WdRynD1bcavdNuHgRKbWZcpEuCSoExp4gUqWxJqlMgJe97KrgojwJF8a0V5-ViqkHTig8FBc-kajD8Fc1B2rZQSI63CBRKzkYQxqyvNzLyJnnxfsQUKHPEwL-FvTx3yK4upzlNJagAz-RpveQfg24A0eB2kEirt3CzUanSqhNhZ-BVO5tmlJa1A_yyUT3WuJQsEYIAdkj37GDKFxhVQLTGo_0oeVUwyJqScH3s7_FftDfiDBcOoEA2OYOxdFm00]--></g></svg>

<svg xmlns="http://www.w3.org/2000/svg" width="357" height="864" viewBox="0 0 357 864"><rect width="168" height="39.789" x="94.5" y="438.76" fill="#3D176E" rx="2.5" ry="2.5" style="stroke:#000d19;stroke-width:.5"/><circle cx="109.5" cy="458.654" r="11" fill="#ADD1B2" style="stroke:#181818;stroke-width:1"/><path d="M112.469 464.295q-.578.297-1.219.438-.64.156-1.344.156-2.5 0-3.828-1.64-1.312-1.657-1.312-4.782t1.312-4.781q1.328-1.656 3.828-1.656.703 0 1.344.156.656.156 1.219.453v2.719q-.625-.579-1.219-.844-.594-.281-1.219-.281-1.344 0-2.031 1.078-.687 1.062-.687 3.156t.687 3.172q.688 1.062 2.031 1.062.625 0 1.219-.265.594-.281 1.219-.86z"/><text x="128.5" y="464.54" fill="#D9B8FF" font-family="Helvetica" font-size="17" textLength="126">azure_resource</text><rect width="343" height="258.164" x="7" y="599.55" fill="#3D176E" rx="2.5" ry="2.5" style="stroke:#000d19;stroke-width:.5"/><circle cx="91.75" cy="619.444" r="11" fill="#ADD1B2" style="stroke:#181818;stroke-width:1"/><path d="M94.719 625.085q-.578.297-1.219.438-.64.156-1.344.156-2.5 0-3.828-1.64-1.312-1.657-1.312-4.782t1.312-4.781q1.328-1.657 3.828-1.657.703 0 1.344.157.656.156 1.219.453v2.719q-.625-.579-1.219-.844-.594-.281-1.219-.281-1.344 0-2.031 1.078-.687 1.062-.687 3.156t.687 3.172q.688 1.062 2.031 1.062.625 0 1.219-.265.594-.282 1.219-.86z"/><text x="117.25" y="625.33" fill="#D9B8FF" font-family="Helvetica" font-size="17" textLength="155">azure_virtual_wan</text><path d="M8 639.339h341" style="stroke:#000d19;stroke-width:.5"/><text x="18" y="661.334" fill="#D9B8FF" font-family="sans-serif" font-size="14" font-weight="bold" textLength="242">allow_branch_to_branch_traffic</text><text x="260" y="661.334" fill="#D9B8FF" font-family="sans-serif" font-size="14" textLength="65">: boolean</text><text x="18" y="687.631" fill="#D9B8FF" font-family="sans-serif" font-size="14" font-weight="bold" textLength="202">allow_vnet_to_vnet_traffic</text><text x="220" y="687.631" fill="#D9B8FF" font-family="sans-serif" font-size="14" textLength="65">: boolean</text><text x="18" y="713.928" fill="#D9B8FF" font-family="sans-serif" font-size="14" font-weight="bold" textLength="184">disable_vpn_encryption</text><text x="202" y="713.928" fill="#D9B8FF" font-family="sans-serif" font-size="14" textLength="65">: boolean</text><text x="18" y="740.225" fill="#D9B8FF" font-family="sans-serif" font-size="14" font-weight="bold" textLength="35">etag</text><text x="53" y="740.225" fill="#D9B8FF" font-family="sans-serif" font-size="14" textLength="48">: string</text><text x="18" y="766.522" fill="#D9B8FF" font-family="sans-serif" font-size="14" font-weight="bold" textLength="273">office365_local_breakout_category</text><text x="291" y="766.522" fill="#D9B8FF" font-family="sans-serif" font-size="14" textLength="48">: string</text><text x="18" y="792.819" fill="#D9B8FF" font-family="sans-serif" font-size="14" font-weight="bold" textLength="144">provisioning_state</text><text x="162" y="792.819" fill="#D9B8FF" font-family="sans-serif" font-size="14" textLength="48">: string</text><text x="18" y="819.115" fill="#D9B8FF" font-family="sans-serif" font-size="14" font-weight="bold" textLength="95">virtual_hubs</text><text x="113" y="819.115" fill="#D9B8FF" font-family="sans-serif" font-size="14" textLength="58">: string[]</text><text x="18" y="845.412" fill="#D9B8FF" font-family="sans-serif" font-size="14" font-weight="bold" textLength="74">vpn_sites</text><text x="92" y="845.412" fill="#D9B8FF" font-family="sans-serif" font-size="14" textLength="58">: string[]</text><rect width="227" height="310.758" x="65" y="7" fill="#3D176E" rx="2.5" ry="2.5" style="stroke:#000d19;stroke-width:.5"/><circle cx="133.75" cy="26.895" r="11" fill="#ADD1B2" style="stroke:#181818;stroke-width:1"/><path d="M136.719 32.535q-.578.297-1.219.438-.64.156-1.344.156-2.5 0-3.828-1.64-1.312-1.657-1.312-4.782t1.312-4.781q1.328-1.656 3.828-1.656.703 0 1.344.156.656.156 1.219.453v2.719q-.625-.578-1.219-.844-.594-.281-1.219-.281-1.344 0-2.031 1.078-.687 1.062-.687 3.156t.687 3.172q.688 1.062 2.031 1.062.625 0 1.219-.265.594-.281 1.219-.86z"/><text x="159.25" y="32.78" fill="#D9B8FF" font-family="Helvetica" font-size="17" textLength="71">resource</text><path d="M66 46.789h225" style="stroke:#000d19;stroke-width:.5"/><text x="76" y="68.784" fill="#D9B8FF" font-family="sans-serif" font-size="14" font-weight="bold" textLength="29">age</text><text x="105" y="68.784" fill="#D9B8FF" font-family="sans-serif" font-size="14" textLength="66">: duration</text><text x="76" y="95.081" fill="#D9B8FF" font-family="sans-serif" font-size="14" font-weight="bold" textLength="43">atime</text><text x="119" y="95.081" fill="#D9B8FF" font-family="sans-serif" font-size="14" textLength="70">: datetime</text><text x="76" y="121.378" fill="#D9B8FF" font-family="sans-serif" font-size="14" font-weight="bold" textLength="43">ctime</text><text x="119" y="121.378" fill="#D9B8FF" font-family="sans-serif" font-size="14" textLength="70">: datetime</text><text x="76" y="147.675" fill="#D9B8FF" font-family="sans-serif" font-size="14" font-weight="bold" textLength="14">id</text><text x="90" y="147.675" fill="#D9B8FF" font-family="sans-serif" font-size="14" textLength="48">: string</text><text x="76" y="173.972" fill="#D9B8FF" font-family="sans-serif" font-size="14" font-weight="bold" textLength="33">kind</text><text x="109" y="173.972" fill="#D9B8FF" font-family="sans-serif" font-size="14" textLength="48">: string</text><text x="76" y="200.269" fill="#D9B8FF" font-family="sans-serif" font-size="14" font-weight="bold" textLength="90">last_access</text><text x="166" y="200.269" fill="#D9B8FF" font-family="sans-serif" font-size="14" textLength="66">: duration</text><text x="76" y="226.565" fill="#D9B8FF" font-family="sans-serif" font-size="14" font-weight="bold" textLength="90">last_update</text><text x="166" y="226.565" fill="#D9B8FF" font-family="sans-serif" font-size="14" textLength="66">: duration</text><text x="76" y="252.862" fill="#D9B8FF" font-family="sans-serif" font-size="14" font-weight="bold" textLength="48">mtime</text><text x="124" y="252.862" fill="#D9B8FF" font-family="sans-serif" font-size="14" textLength="70">: datetime</text><text x="76" y="279.159" fill="#D9B8FF" font-family="sans-serif" font-size="14" font-weight="bold" textLength="43">name</text><text x="119" y="279.159" fill="#D9B8FF" font-family="sans-serif" font-size="14" textLength="48">: string</text><text x="76" y="305.456" fill="#D9B8FF" font-family="sans-serif" font-size="14" font-weight="bold" textLength="34">tags</text><text x="110" y="305.456" fill="#D9B8FF" font-family="sans-serif" font-size="14" textLength="171">: dictionary[string, string]</text><path fill="none" d="M178.5 335.84v102.83m0-120.83-6 18h12zm0 179.08v102.13m0-120.13-6 18h12z" style="stroke:#ffaf37;stroke-width:2"/></svg>
